X:3369
T:Contentment is Wealth
S:Mairead Mooney, Donegal (fiddle)
D:Private tape
R:Reel
N:As played
Z:Bernie Stocks
M:4/4
K:D
D3d {cd}cAAB | cded {cd}cAGE | (3.D.D.DDd {cd}cAAB | cAGE {G}EDDA |
EAAB {d}=c2AB | cded {cd}cAAg | (3fga ge dfed |1 cAGE {G}EDCE
:|2 cAGE {G}EDDA || ~d3e ~f3g | af{a}ge dcAG | Ad~d2 fded | {cd}cAAG EFGE |
~d3e ~f3g | af{a}ge defg | (3.a.g.f ge faed |1 {cd}cAGE {G}EDDA :|2 cAGE EDCE || D4


